X:1
T:L-O-V-E
T:L-O-V-E
T:Bert Kaempfert
C:Bert Kaempfert
Z:All Rights Reserved
L:1/4
Q:1/4=120
M:4/4
K:Eb
V:1 treble nm="MusicXML Part"
%%MIDI program 54
%%MIDI control 7 102
%%MIDI control 10 64
V:1
"Eb" E3 D | D C =B, C |"Fm" E3 D |"Bb7" D4 |"Fm6" D3 C |"Bb7" C B, =A, B, |"Eb" D3 C | C4 | %8
w: L is|for the way you|look at|me|O is|for the on- ly|one I|see|
"Bbm6" G3 F |"Eb7" F E D E |"Ab" G3 F | F E D E |"F7" G3 F | F E D E |"Fm7" D E F E | %15
w: V is|ver- y, ver- y|ex- tra-|or- din- ar- y|E is|e- ven more than|an- y- one that|
"Bb7" D B, A, F, |"Eb" E3 D | D C =B, C |"Fm" E3 D |"Bb7" D4 |"Fm6" D3 C |"Bb7" C B, =A, B, | %22
w: you can a- dore|Love is|all that I can|give to|you|Love is|more than just a|
"Eb" D3 C | C4 |"Bbm7" G3 F |"Eb7" F E D E |"Ab" G F F E |"Adim" E D C D |"Eb/Bb" E3"Cm" D | %29
w: game for|two|Two in|love can make it|Take my heart and|please don't break it|Love was|
"Fm6" D B,"Bb7" D F |"Eb" E4 | E3 z |] %32
w: made for me and|you|_|

